program_info/org.freesmTeam.freesmlauncher.bigsur.svg

<?xml version="1.0" encoding="UTF-8" standalone="no"?>
<svg
   width="1024"
   height="1024"
   viewBox="0 0 1024 1024"
   fill="none"
   version="1.1"
   id="svg76"
   sodipodi:docname="org.freesmTeam.freesmlauncher.bigsur.svg"
   inkscape:version="1.2.1 (9c6d41e410, 2022-07-14, custom)"
   xmlns:inkscape="http://www.inkscape.org/namespaces/inkscape"
   xmlns:sodipodi="http://sodipodi.sourceforge.net/DTD/sodipodi-0.dtd"
   xmlns="http://www.w3.org/2000/svg"
   xmlns:svg="http://www.w3.org/2000/svg">
  <sodipodi:namedview
     id="namedview78"
     pagecolor="#ffffff"
     bordercolor="#999999"
     borderopacity="1"
     inkscape:showpageshadow="0"
     inkscape:pageopacity="0"
     inkscape:pagecheckerboard="0"
     inkscape:deskcolor="#d1d1d1"
     showgrid="false"
     inkscape:zoom="0.33974271"
     inkscape:cx="1215.6258"
     inkscape:cy="532.75609"
     inkscape:window-width="1920"
     inkscape:window-height="1026"
     inkscape:window-x="0"
     inkscape:window-y="0"
     inkscape:window-maximized="1"
     inkscape:current-layer="svg76" />
  <g
     filter="url(#filter0_d_102_69)"
     id="g4">
    <path
       fill-rule="evenodd"
       clip-rule="evenodd"
       d="M924 354.627C924 344.845 924.004 335.062 923.944 325.279C923.895 317.038 923.8 308.799 923.576 300.562C923.092 282.609 922.033 264.502 918.84 246.749C915.602 228.741 910.314 211.98 901.981 195.617C893.789 179.534 883.088 164.817 870.32 152.058C857.555 139.299 842.834 128.605 826.746 120.418C810.366 112.083 793.587 106.797 775.558 103.56C757.803 100.372 739.691 99.315 721.738 98.83C713.495 98.607 705.253 98.513 697.008 98.462C687.22 98.402 677.432 98.407 667.644 98.407L553.997 98H468.997L357.361 98.407C347.554 98.407 337.747 98.402 327.94 98.462C319.678 98.513 311.42 98.607 303.161 98.83C285.167 99.315 267.014 100.373 249.217 103.565C231.164 106.801 214.36 112.085 197.958 120.414C181.835 128.602 167.083 139.297 154.291 152.058C141.501 164.816 130.78 179.53 122.573 195.61C114.217 211.981 108.919 228.752 105.673 246.77C102.477 264.516 101.418 282.617 100.931 300.562C100.709 308.8 100.613 317.039 100.563 325.279C100.503 335.063 100 347.216 100 356.999L100.003 467.089L100 552.998L100.508 665.427C100.508 675.223 100.504 685.019 100.563 694.815C100.613 703.067 100.709 711.317 100.932 719.566C101.418 737.542 102.479 755.675 105.678 773.452C108.923 791.484 114.22 808.269 122.569 824.653C130.777 840.759 141.5 855.495 154.291 868.272C167.082 881.049 181.83 891.757 197.95 899.956C214.362 908.302 231.174 913.595 249.238 916.836C267.027 920.029 285.174 921.088 303.161 921.573C311.42 921.796 319.679 921.891 327.941 921.941C337.748 922.001 347.554 921.997 357.361 921.997L470.006 922H555.217L667.644 921.996C677.432 921.996 687.22 922.001 697.008 921.941C705.253 921.891 713.495 921.796 721.738 921.573C739.698 921.087 757.816 920.027 775.579 916.832C793.597 913.591 810.368 908.3 826.739 899.959C842.831 891.761 857.554 881.051 870.32 868.272C883.086 855.497 893.786 840.763 901.978 824.66C910.316 808.268 915.604 791.475 918.844 773.431C922.034 755.661 923.092 737.535 923.577 719.566C923.8 711.316 923.895 703.066 923.944 694.815C924.005 685.019 924 675.223 924 665.427C924 665.427 923.994 554.983 923.994 552.998V466.999C923.994 465.533 924 354.627 924 354.627Z"
       fill="url(#paint0_linear_102_69)"
       id="path2" />
  </g>
  <mask
     id="mask0_102_69"
     style="mask-type: alpha"
     maskUnits="userSpaceOnUse"
     x="100"
     y="98"
     width="824"
     height="824">
    <path
       fill-rule="evenodd"
       clip-rule="evenodd"
       d="M924 354.627C924 344.845 924.004 335.062 923.944 325.279C923.895 317.038 923.8 308.799 923.576 300.562C923.092 282.609 922.033 264.502 918.84 246.749C915.602 228.741 910.314 211.98 901.981 195.617C893.789 179.534 883.088 164.817 870.32 152.058C857.555 139.299 842.834 128.605 826.746 120.418C810.366 112.083 793.587 106.797 775.558 103.56C757.803 100.372 739.691 99.315 721.738 98.83C713.495 98.607 705.253 98.513 697.008 98.462C687.22 98.402 677.432 98.407 667.644 98.407L553.997 98H468.997L357.361 98.407C347.554 98.407 337.747 98.402 327.94 98.462C319.678 98.513 311.42 98.607 303.161 98.83C285.167 99.315 267.014 100.373 249.217 103.565C231.164 106.801 214.36 112.085 197.958 120.414C181.835 128.602 167.083 139.297 154.291 152.058C141.501 164.816 130.78 179.53 122.573 195.61C114.217 211.981 108.919 228.752 105.673 246.77C102.477 264.516 101.418 282.617 100.931 300.562C100.709 308.8 100.613 317.039 100.563 325.279C100.503 335.063 100 347.216 100 356.999L100.003 467.089L100 552.998L100.508 665.427C100.508 675.223 100.504 685.019 100.563 694.815C100.613 703.067 100.709 711.317 100.932 719.566C101.418 737.542 102.479 755.675 105.678 773.452C108.923 791.484 114.22 808.269 122.569 824.653C130.777 840.759 141.5 855.495 154.291 868.272C167.082 881.049 181.83 891.757 197.95 899.956C214.362 908.302 231.174 913.595 249.238 916.836C267.027 920.029 285.174 921.088 303.161 921.573C311.42 921.796 319.679 921.891 327.941 921.941C337.748 922.001 347.554 921.997 357.361 921.997L470.006 922H555.217L667.644 921.996C677.432 921.996 687.22 922.001 697.008 921.941C705.253 921.891 713.495 921.796 721.738 921.573C739.698 921.087 757.816 920.027 775.579 916.832C793.597 913.591 810.368 908.3 826.739 899.959C842.831 891.761 857.554 881.051 870.32 868.272C883.086 855.497 893.786 840.763 901.978 824.66C910.316 808.268 915.604 791.475 918.844 773.431C922.034 755.661 923.092 737.535 923.577 719.566C923.8 711.316 923.895 703.066 923.944 694.815C924.005 685.019 924 675.223 924 665.427C924 665.427 923.994 554.983 923.994 552.998V466.999C923.994 465.533 924 354.627 924 354.627Z"
       fill="white"
       id="path6" />
  </mask>
  <g
     mask="url(#mask0_102_69)"
     id="g15">
    <rect
       x="42"
       y="36"
       width="914"
       height="914"
       fill="url(#paint1_linear_102_69)"
       id="rect9" />
    <g
       filter="url(#filter1_b_102_69)"
       id="g13">
      <rect
         x="100"
         y="98"
         width="824"
         height="824"
         rx="126"
         fill="black"
         fill-opacity="0.01"
         id="rect11" />
    </g>
  </g>
  <defs
     id="defs74">
    <filter
       id="filter0_d_102_69"
       x="90"
       y="98"
       width="844"
       height="844"
       filterUnits="userSpaceOnUse"
       color-interpolation-filters="sRGB">
      <feFlood
         flood-opacity="0"
         result="BackgroundImageFix"
         id="feFlood31" />
      <feColorMatrix
         in="SourceAlpha"
         type="matrix"
         values="0 0 0 0 0 0 0 0 0 0 0 0 0 0 0 0 0 0 127 0"
         result="hardAlpha"
         id="feColorMatrix33" />
      <feOffset
         dy="10"
         id="feOffset35" />
      <feGaussianBlur
         stdDeviation="5"
         id="feGaussianBlur37" />
      <feColorMatrix
         type="matrix"
         values="0 0 0 0 0 0 0 0 0 0 0 0 0 0 0 0 0 0 0.3 0"
         id="feColorMatrix39" />
      <feBlend
         mode="normal"
         in2="BackgroundImageFix"
         result="effect1_dropShadow_102_69"
         id="feBlend41" />
      <feBlend
         mode="normal"
         in="SourceGraphic"
         in2="effect1_dropShadow_102_69"
         result="shape"
         id="feBlend43" />
    </filter>
    <filter
       id="filter1_b_102_69"
       x="89.1269"
       y="87.1269"
       width="845.746"
       height="845.746"
       filterUnits="userSpaceOnUse"
       color-interpolation-filters="sRGB">
      <feFlood
         flood-opacity="0"
         result="BackgroundImageFix"
         id="feFlood46" />
      <feGaussianBlur
         in="BackgroundImage"
         stdDeviation="5.43656"
         id="feGaussianBlur48" />
      <feComposite
         in2="SourceAlpha"
         operator="in"
         result="effect1_backgroundBlur_102_69"
         id="feComposite50" />
      <feBlend
         mode="normal"
         in="SourceGraphic"
         in2="effect1_backgroundBlur_102_69"
         result="shape"
         id="feBlend52" />
    </filter>
    <linearGradient
       id="paint0_linear_102_69"
       x1="-181.14"
       y1="98"
       x2="-181.14"
       y2="1484.28"
       gradientUnits="userSpaceOnUse">
      <stop
         stop-color="white"
         id="stop55" />
      <stop
         offset="0.489516"
         stop-color="#EFEFEF"
         id="stop57" />
      <stop
         offset="1"
         stop-color="#C0C0C0"
         id="stop59" />
    </linearGradient>
    <linearGradient
       id="paint1_linear_102_69"
       x1="928.377"
       y1="992.826"
       x2="928.377"
       y2="134.072"
       gradientUnits="userSpaceOnUse">
      <stop
         stop-color="#F6F3F3"
         id="stop62" />
      <stop
         offset="1"
         stop-color="white"
         id="stop64" />
    </linearGradient>
    <linearGradient
       id="paint2_linear_102_69"
       x1="394.815"
       y1="372.239"
       x2="629.182"
       y2="542.528"
       gradientUnits="userSpaceOnUse">
      <stop
         stop-color="#88B858"
         id="stop67" />
      <stop
         offset="0.5"
         stop-color="#72B147"
         id="stop69" />
      <stop
         offset="1"
         stop-color="#5A9A30"
         id="stop71" />
    </linearGradient>
  </defs>
  <g
     id="g1817"
     transform="matrix(0.81938386,0,0,0.81938386,-746.9626,25.220302)">
    <path
       style="fill:#99cd61;fill-opacity:1;stroke-width:17.3878"
       d="M 1536.4629,591.62417 Z"
       id="path7899" />
    <path
       id="path3228"
       style="fill:#df6277;fill-opacity:1;stroke-width:17.3878"
       d="m 1536.4629,209.09169 -165.6591,286.89936 165.6591,95.63312 165.6262,-95.63312 7.2003,-203.69576 c -75.6493,-43.67547 -153.6998,-83.2036 -172.8265,-83.2036 z" />
    <path
       id="path2659"
       style="fill:#fb9168;fill-opacity:1;stroke-width:17.3878"
       d="m 1709.2894,292.29529 -172.8265,299.32888 165.6262,95.63312 165.6591,-286.89936 c -9.5633,-16.56418 -82.8113,-64.38717 -158.4588,-108.06264 z" />
    <path
       id="path2708"
       style="fill:#f3db6c;fill-opacity:1;stroke-width:17.3878"
       d="m 1867.7482,400.35793 -331.2853,191.26624 165.6262,95.63312 179.9919,-95.63312 c 0,-87.35094 -4.7677,-174.70206 -14.3328,-191.26624 z" />
    <path
       id="path1737"
       style="fill:#7ab392;fill-opacity:1;stroke-width:17.3878"
       d="m 1536.4629,591.62417 v 191.26624 h 331.2853 c 9.5633,-16.56418 14.3328,-103.9153 14.3328,-191.26624 z" />
    <path
       id="path2937"
       style="fill:#4b7cbc;fill-opacity:1;stroke-width:17.3878"
       d="m 1536.4629,591.62417 v 191.26624 l 172.8265,108.06281 c 75.6475,-43.67547 148.8955,-91.49863 158.4588,-108.06281 z" />
    <path
       id="path3117"
       style="fill:#6f488c;fill-opacity:1;stroke-width:17.3878"
       d="m 1536.4629,591.62417 -165.6591,95.63312 165.6591,286.89936 c 19.1267,0 97.1772,-39.52795 172.8265,-83.20343 z" />
    <path
       id="path2010"
       style="fill:#4d3f33;fill-opacity:1;stroke-width:17.3878"
       d="m 1370.8038,495.99105 -165.6262,286.89936 c 19.1267,33.12818 293.0321,191.26624 331.2853,191.26624 V 591.62417 Z" />
    <path
       id="path1744"
       style="fill:#7a573b;fill-opacity:1;stroke-width:17.3878"
       d="m 1205.1776,400.35793 c -19.1266,33.12818 -19.1266,349.4043 0,382.53248 L 1536.4629,591.62417 V 400.35793 Z" />
    <path
       id="path1739"
       style="fill:#99cd61;fill-opacity:1;stroke-width:17.3878"
       d="m 1536.4629,209.09169 c -38.2532,0 -312.1586,158.13806 -331.2853,191.26624 l 331.2853,191.26624 z" />
    <g
       id="g1657"
       transform="matrix(57.831674,0,0,57.831674,402.40368,92.688452)">
      <g
         id="g7651"
         transform="translate(13.259961,2.2775894)">
        <path
           id="path6659"
           style="fill:#ffffff;stroke-width:0.264583"
           d="m 6.3498163,2.9393223 c -0.3410461,0 -2.782726,1.4098777 -2.9532491,1.7052323 L 6.3498163,9.7602513 9.3035983,4.6445546 C 9.1330753,4.3492 6.6908624,2.9393223 6.3498163,2.9393223 Z"
           transform="matrix(0.96974817,0,0,0.96974817,0.19209885,0.19209792)" />
      </g>
      <path
         id="path461"
         style="fill:#dfdfdf;fill-opacity:1;stroke-width:0.264583"
         d="m 16.745875,6.9737355 2.863908,4.9609385 c 0.330729,0 2.69906,-1.367226 2.864424,-1.653646 0.165365,-0.2864204 0.165365,-3.0208729 0,-3.3072925 l -2.864424,1.6536459 z" />
    </g>
    <path
       id="path5065"
       style="fill:#d6d2d2;fill-opacity:1;stroke-width:17.3878"
       d="m 1370.8455,495.99122 c -9.5633,16.56436 -9.5651,174.70241 0,191.26624 9.5633,16.56366 146.4995,95.63382 165.6261,95.63312 V 591.62434 Z" />
  </g>
</svg>

<?xml version="1.0"?>
<svg width="1024" height="1024" xmlns="http://www.w3.org/2000/svg" xmlns:svg="http://www.w3.org/2000/svg" version="1.1">
 <mask height="824" id="mask0_102_69" maskUnits="userSpaceOnUse" width="824" x="100" y="98">
  <path clip-rule="evenodd" d="m924,354.63c0,-9.78 0,-19.57 -0.06,-29.35c-0.05,-8.24 -0.14,-16.48 -0.36,-24.72c-0.49,-17.95 -1.55,-36.06 -4.74,-53.81c-3.24,-18.01 -8.53,-34.77 -16.86,-51.13c-8.19,-16.09 -18.89,-30.8 -31.66,-43.56c-12.77,-12.76 -27.49,-23.46 -43.57,-31.64c-16.38,-8.34 -33.16,-13.62 -51.19,-16.86c-17.76,-3.19 -35.87,-4.25 -53.82,-4.73c-8.24,-0.22 -16.49,-0.32 -24.73,-0.37c-9.79,-0.06 -19.58,-0.05 -29.37,-0.05l-113.64,-0.41l-85,0l-111.64,0.41c-9.81,0 -19.61,-0.01 -29.42,0.05c-8.26,0.05 -16.52,0.15 -24.78,0.37c-17.99,0.48 -36.15,1.54 -53.94,4.73c-18.06,3.24 -34.86,8.52 -51.26,16.85c-16.12,8.19 -30.88,18.89 -43.67,31.65c-12.79,12.76 -23.51,27.47 -31.72,43.55c-8.35,16.37 -13.65,33.14 -16.9,51.16c-3.19,17.75 -4.25,35.85 -4.74,53.79c-0.22,8.24 -0.32,16.48 -0.37,24.72c-0.06,9.78 -0.56,21.94 -0.56,31.72l0,110.09l0,85.91l0.51,112.43c0,9.79 -0.01,19.59 0.05,29.39c0.05,8.25 0.15,16.5 0.37,24.75c0.49,17.97 1.55,36.1 4.75,53.88c3.24,18.03 8.54,34.82 16.89,51.2c8.21,16.11 18.93,30.85 31.72,43.62c12.79,12.78 27.54,23.49 43.66,31.69c16.41,8.34 33.22,13.64 51.29,16.88c17.79,3.19 35.93,4.25 53.92,4.73c8.26,0.23 16.52,0.32 24.78,0.37c9.81,0.06 19.61,0.06 29.42,0.06l112.65,0l85.21,0l112.42,0c9.79,0 19.58,0 29.37,-0.06c8.24,-0.05 16.49,-0.14 24.73,-0.37c17.96,-0.48 36.08,-1.54 53.84,-4.74c18.02,-3.24 34.79,-8.53 51.16,-16.87c16.09,-8.2 30.81,-18.91 43.58,-31.69c12.77,-12.77 23.47,-27.51 31.66,-43.61c8.34,-16.39 13.62,-33.18 16.86,-51.23c3.19,-17.77 4.25,-35.9 4.74,-53.86c0.22,-8.25 0.31,-16.5 0.36,-24.75c0.06,-9.8 0.06,-19.6 0.06,-29.39c0,0 -0.01,-110.45 -0.01,-112.43l0,-86c0,-1.47 0.01,-112.37 0.01,-112.37z" fill="white" fill-rule="evenodd" id="path6"/>
 </mask>
 <defs id="defs74">
  <filter color-interpolation-filters="sRGB" filterUnits="userSpaceOnUse" height="844" id="filter0_d_102_69" width="844" x="90" y="98">
   <feFlood flood-opacity="0" id="feFlood31" result="BackgroundImageFix"/>
   <feColorMatrix id="feColorMatrix33" in="SourceAlpha" result="hardAlpha" type="matrix" values="0 0 0 0 0 0 0 0 0 0 0 0 0 0 0 0 0 0 127 0"/>
   <feOffset dy="10" id="feOffset35"/>
   <feGaussianBlur id="feGaussianBlur37" stdDeviation="5"/>
   <feColorMatrix id="feColorMatrix39" type="matrix" values="0 0 0 0 0 0 0 0 0 0 0 0 0 0 0 0 0 0 0.3 0"/>
   <feBlend id="feBlend41" in2="BackgroundImageFix"/>
   <feBlend id="feBlend43" in="SourceGraphic" in2="effect1_dropShadow_102_69"/>
  </filter>
  <filter color-interpolation-filters="sRGB" filterUnits="userSpaceOnUse" height="845.75" id="filter1_b_102_69" width="845.75" x="89.13" y="87.13">
   <feFlood flood-opacity="0" id="feFlood46" result="BackgroundImageFix"/>
   <feGaussianBlur id="feGaussianBlur48" in="BackgroundImage" stdDeviation="5.44"/>
   <feComposite id="feComposite50" in2="SourceAlpha" operator="in" result="effect1_backgroundBlur_102_69"/>
   <feBlend id="feBlend52" in="SourceGraphic" in2="effect1_backgroundBlur_102_69"/>
  </filter>
  <linearGradient id="paint0_linear_102_69" x1="-0.34" x2="-0.34" y1="0" y2="1.68">
   <stop id="stop55" stop-color="white"/>
   <stop id="stop57" offset="0.49" stop-color="#EFEFEF"/>
   <stop id="stop59" offset="1" stop-color="#C0C0C0"/>
  </linearGradient>
  <linearGradient id="paint1_linear_102_69" x1="0.97" x2="0.97" y1="1.05" y2="0.11">
   <stop id="stop62" stop-color="#F6F3F3"/>
   <stop id="stop64" offset="1" stop-color="white"/>
  </linearGradient>
 </defs>
 <g class="layer">
  <title>Layer 1</title>
  <g filter="url(#filter0_d_102_69)" id="g4">
   <path clip-rule="evenodd" d="m924,354.63c0,-9.78 0,-19.57 -0.06,-29.35c-0.05,-8.24 -0.14,-16.48 -0.36,-24.72c-0.49,-17.95 -1.55,-36.06 -4.74,-53.81c-3.24,-18.01 -8.53,-34.77 -16.86,-51.13c-8.19,-16.09 -18.89,-30.8 -31.66,-43.56c-12.77,-12.76 -27.49,-23.46 -43.57,-31.64c-16.38,-8.34 -33.16,-13.62 -51.19,-16.86c-17.76,-3.19 -35.87,-4.25 -53.82,-4.73c-8.24,-0.22 -16.49,-0.32 -24.73,-0.37c-9.79,-0.06 -19.58,-0.05 -29.37,-0.05l-113.64,-0.41l-85,0l-111.64,0.41c-9.81,0 -19.61,-0.01 -29.42,0.05c-8.26,0.05 -16.52,0.15 -24.78,0.37c-17.99,0.48 -36.15,1.54 -53.94,4.73c-18.06,3.24 -34.86,8.52 -51.26,16.85c-16.12,8.19 -30.88,18.89 -43.67,31.65c-12.79,12.76 -23.51,27.47 -31.72,43.55c-8.35,16.37 -13.65,33.14 -16.9,51.16c-3.19,17.75 -4.25,35.85 -4.74,53.79c-0.22,8.24 -0.32,16.48 -0.37,24.72c-0.06,9.78 -0.56,21.94 -0.56,31.72l0,110.09l0,85.91l0.51,112.43c0,9.79 -0.01,19.59 0.05,29.39c0.05,8.25 0.15,16.5 0.37,24.75c0.49,17.97 1.55,36.1 4.75,53.88c3.24,18.03 8.54,34.82 16.89,51.2c8.21,16.11 18.93,30.85 31.72,43.62c12.79,12.78 27.54,23.49 43.66,31.69c16.41,8.34 33.22,13.64 51.29,16.88c17.79,3.19 35.93,4.25 53.92,4.73c8.26,0.23 16.52,0.32 24.78,0.37c9.81,0.06 19.61,0.06 29.42,0.06l112.65,0l85.21,0l112.42,0c9.79,0 19.58,0 29.37,-0.06c8.24,-0.05 16.49,-0.14 24.73,-0.37c17.96,-0.48 36.08,-1.54 53.84,-4.74c18.02,-3.24 34.79,-8.53 51.16,-16.87c16.09,-8.2 30.81,-18.91 43.58,-31.69c12.77,-12.77 23.47,-27.51 31.66,-43.61c8.34,-16.39 13.62,-33.18 16.86,-51.23c3.19,-17.77 4.25,-35.9 4.74,-53.86c0.22,-8.25 0.31,-16.5 0.36,-24.75c0.06,-9.8 0.06,-19.6 0.06,-29.39c0,0 -0.01,-110.45 -0.01,-112.43l0,-86c0,-1.47 0.01,-112.37 0.01,-112.37z" fill="url(#paint0_linear_102_69)" fill-rule="evenodd" id="path2"/>
  </g>
  <g id="g15" mask="url(#mask0_102_69)">
   <rect fill="url(#paint1_linear_102_69)" height="914" id="rect9" width="914" x="42" y="36"/>
   <g filter="url(#filter1_b_102_69)" id="g13">
    <rect fill="black" fill-opacity="0.01" height="824" id="rect11" rx="126" width="824" x="100" y="98"/>
   </g>
  </g>
  <g id="g1817" transform="matrix(0.819384, 0, 0, 0.819384, -746.963, 25.2203)">
   <path d="m1536.46,591.62z" fill="#99cd61" id="path7899" stroke-width="17.39"/>
   <path d="m1536.46,209.09l-165.66,286.9l165.66,95.63l165.63,-95.63l7.2,-203.69c-75.65,-43.68 -153.7,-83.21 -172.83,-83.21z" fill="#f5c2e7" id="path3228" stroke-width="17.39" transform="matrix(1, 0, 0, 1, 0, 0)"/>
   <path d="m1709.29,292.3l-172.83,299.32l165.63,95.64l165.66,-286.9c-9.57,-16.57 -82.81,-64.39 -158.46,-108.06z" fill="#f2cdcd" id="path2659" stroke-width="17.39" transform="matrix(1, 0, 0, 1, 0, 0)"/>
   <path d="m1867.75,400.36l-331.29,191.26l165.63,95.64l179.99,-95.64c0,-87.35 -4.77,-174.7 -14.33,-191.26z" fill="#f5e0dc" id="path2708" stroke-width="17.39" transform="matrix(1, 0, 0, 1, 0, 0)"/>
   <path d="m1536.46,591.62l0,191.27l331.29,0c9.56,-16.56 14.33,-103.91 14.33,-191.27l-345.62,0z" fill="#fff1e9" id="path1737" stroke-width="17.39" transform="matrix(1, 0, 0, 1, 0, 0)"/>
   <path d="m1536.46,591.62l0,191.27l172.83,108.06c75.65,-43.67 148.89,-91.5 158.46,-108.06l-331.29,-191.27z" fill="#f9f6f3" id="path2937" stroke-width="17.39" transform="matrix(1, 0, 0, 1, 0, 0)"/>
   <path d="m1536.46,591.62l-165.66,95.64l165.66,286.9c19.13,0 97.18,-39.53 172.83,-83.21l-172.83,-299.33z" fill="#fcfcfc" id="path3117" stroke-width="17.39" transform="matrix(1, 0, 0, 1, 0, 0)"/>
   <path d="m1370.8,495.99l-165.62,286.9c19.12,33.13 293.03,191.27 331.28,191.27l0,-382.54l-165.66,-95.63z" fill="#4d3f33" id="path2010" stroke-width="17.39"/>
   <path d="m1205.18,400.36c-19.13,33.13 -19.13,349.4 0,382.53l331.28,-191.27l0,-191.26l-331.28,0z" fill="#7a573b" id="path1744" stroke-width="17.39"/>
   <path d="m1536.46,209.09c-38.25,0 -312.16,158.14 -331.28,191.27l331.28,191.26l0,-382.53z" fill="#cba6f7" id="path1739" stroke-width="17.39"/>
   <g id="g1657" transform="matrix(57.831674,0,0,57.831674,402.40368,92.688452)">
    <g id="g7651" transform="translate(13.259961,2.2775894)">
     <path d="m6.35,2.94c-0.34,0 -2.78,1.41 -2.95,1.7l2.95,5.12l2.95,-5.12c-0.17,-0.29 -2.61,-1.7 -2.95,-1.7z" fill="#ffffff" id="path6659" stroke-width="0.26" transform="matrix(0.96974817,0,0,0.96974817,0.19209885,0.19209792)"/>
    </g>
    <path d="m16.75,6.97l2.86,4.96c0.33,0 2.7,-1.36 2.86,-1.65c0.17,-0.29 0.17,-3.02 0,-3.31l-2.86,1.66l-2.86,-1.66z" fill="#dfdfdf" id="path461" stroke-width="0.26"/>
   </g>
   <path d="m1370.85,495.99c-9.57,16.57 -9.57,174.7 0,191.27c9.56,16.56 146.49,95.63 165.62,95.63l0,-191.27l-165.62,-95.63z" fill="#d6d2d2" id="path5065" stroke-width="17.39"/>
  </g>
 </g>
</svg>
